build/svg/chart2/res/typecolumnline_16.svg

<svg viewBox="0 0 16 16" xmlns="http://www.w3.org/2000/svg"><path d="m8.0976562 1.8652344-.375.21875-4 2.5.53125.84375 3.65625-2.28125 3.7187498 4.1875.75-.65625-3.9999998-4.5z" fill="#762572"/><path d="m2 2v11h-1v1h1v1h1v-1h7 2 2v-1h-2v-4h-2v4h-1v-8h-2v8h-1v-6h-2v6h-1v-11z" fill="#232629"/></svg>

<svg viewBox="0 0 16 16" xmlns="http://www.w3.org/2000/svg"><path d="M8.098 1.865l-.375.219-4 2.5.53.844L7.91 3.146l3.719 4.188.75-.656-4-4.5z" fill="#762572"/><path d="M2 2v11H1v1h1v1h1v-1h11v-1h-2V9h-2v4H9V5H7v8H6V7H4v6H3V2z" fill="#232629"/></svg>
